X:170
T:Woodcock, The
R:jig
C:Hammy Hamilton
Z:id:hn-jig-170
M:6/8
K:G
dBG cGE|DBD ~G3|~B3 dBG|dcB ABc|dBG cGE|DBD ~G3|~B3 dcA|1 AGF ~G3:|2 AGF G2d||
BGg ecA|~f3 g2d|ege dBG|dcB ABc|dBg ecA|~f3 g2d|e/f/ge dBA|AGF GBc|
dBG ecA|~f3 g2g|e/f/ge dBG|dcB ABc|dBG cGE|DBD ~G3|~B3 dcA|AGF ~G3||

